static/assets/images/exchanges/biconomy.svg

<svg width="262" height="256" viewBox="0 0 262 256" fill="none" xmlns="http://www.w3.org/2000/svg">
<path d="M21.7623 0L39.317 41.1442V214.857H17.8826L0.333008 255.997H123.704V214.856H87.537V148.57H123.704V107.427H87.537V41.1442H123.704V0H21.7623ZM261.665 181.714C261.665 155.682 245.959 132.791 222.207 119.527C233.501 106.996 240.232 91.3148 240.232 74.2851C240.232 33.2584 201.253 0.00127744 153.17 0.00127744H145.132V41.1429H153.17C174.59 41.1429 192.016 56.0124 192.016 74.2851C192.016 92.559 174.59 107.427 153.17 107.427H145.132V148.571H174.599C196.019 148.571 213.445 163.44 213.445 181.714C213.445 199.988 196.019 214.856 174.599 214.856H145.132V256H174.599C222.686 256 261.665 222.739 261.665 181.714Z" fill="#37B3FF"/>
</svg>

<svg xmlns="http://www.w3.org/2000/svg" fill="none" viewBox="0 0 262 256"><path fill="#37B3FF" d="m21.762 0 17.555 41.144v173.713H17.883l-17.55 41.14h123.371v-41.141H87.537V148.57h36.167v-41.143H87.537V41.144h36.167V0zm239.903 181.714c0-26.032-15.706-48.923-39.458-62.187 11.294-12.531 18.025-28.212 18.025-45.242 0-41.027-38.979-74.284-87.062-74.284h-8.038v41.142h8.038c21.42 0 38.846 14.87 38.846 33.142 0 18.274-17.426 33.142-38.846 33.142h-8.038v41.144h29.467c21.42 0 38.846 14.869 38.846 33.143s-17.426 33.142-38.846 33.142h-29.467V256h29.467c48.087 0 87.066-33.261 87.066-74.286"/></svg>
